src/pos-icons/format-line-style.svg

<svg height="24" viewBox="0 0 24 24" width="24" xmlns="http://www.w3.org/2000/svg"><path d="m3 16h5v-2h-5zm6.5 0h5v-2h-5zm6.5 0h5v-2h-5zm-13 4h2v-2h-2zm4 0h2v-2h-2zm4 0h2v-2h-2zm4 0h2v-2h-2zm4 0h2v-2h-2zm-16-8h8v-2h-8zm10 0h8v-2h-8zm-10-8v4h18v-4z"/></svg>

<?xml version="1.0" encoding="UTF-8"?><!DOCTYPE svg PUBLIC "-//W3C//DTD SVG 1.1//EN" "http://www.w3.org/Graphics/SVG/1.1/DTD/svg11.dtd"><svg xmlns="http://www.w3.org/2000/svg" xmlns:xlink="http://www.w3.org/1999/xlink" version="1.1" id="mdi-format-line-style" width="24" height="24" viewBox="0 0 24 24"><path d="M3,16H8V14H3V16M9.5,16H14.5V14H9.5V16M16,16H21V14H16V16M3,20H5V18H3V20M7,20H9V18H7V20M11,20H13V18H11V20M15,20H17V18H15V20M19,20H21V18H19V20M3,12H11V10H3V12M13,12H21V10H13V12M3,4V8H21V4H3Z" /></svg>
